/* XPM */
static char *ca92e88a98cb41368fa41450c75a1ad10Dk1tPd2P9Eoasez[] = {
/* columns rows colors chars-per-pixel */
"16 16 2 1 ",
"  c #000000",
". c #ffffff",
/* pixels */
"                ",
"                ",
"                ",
"  ............  ",
"                ",
"                ",
"                ",
"  ............  ",
"                ",
"                ",
"                ",
"  ............  ",
"                ",
"                ",
"                ",
"                ",
};
