/* XPM */
static char *a610d3b0458b4e3cd5fb4e4be7274ac6MIBW2Kk8JkahAsCp[] = {
/* columns rows colors chars-per-pixel */
"64 64 7 1 ",
"  c #563923",
". c #090604",
"X c #4C321F",
"o c #675142",
"O c #583C27",
"+ c #5C493D",
"@ c #432c1b",
/* pixels */
"..+oooooooooooooooooooooooooooo+..+ooooooooooooooooooooooooooooo",
"..+oooooooooooooooooooooooooooo+..+ooooooooooooooooooooooooooooo",
"..XOOOOOOOOOOOOOOOOOOOOOOOOOOOOX..XOOOOOOOOOOOOOOOOOOOOOOOOOOOOO",
"..X                            X..X                             ",
"..X                            X..X                             ",
"..X                            X..X                             ",
"..X                            X..X                             ",
"..X                            X..X                             ",
"..X                            X..X                             ",
"..X                            X..X                             ",
"..X                            X..X                             ",
"..X                            X..X                             ",
"..X                            X..X                             ",
"..@XXXXXXXXXXXXXXXXXXXXXXXXXXXX@..@XXXXXXXXXXXXXXXXXXXXXXXXXXXXX",
"................................................................",
"................................................................",
"+++++++++++++++O..O++++++++++++++++++++++++++++O..O+++++++++++++",
"ooooooooooooooo+..+oooooooooooooooooooooooooooo+..+ooooooooooooo",
"OOOOOOOOOOOOOOOX..XOOOOOOOOOOOOOOOOOOOOOOOOOOOOX..XOOOOOOOOOOOOO",
"               X..X                            X..X             ",
"               X..X                            X..X             ",
"               X..X                            X..X             ",
"               X..X                            X..X             ",
"               X..X                            X..X             ",
"               X..X                            X..X             ",
"               X..X                            X..X             ",
"               X..X                            X..X             ",
"               X..X                            X..X             ",
"               X..X                            X..X             ",
"XXXXXXXXXXXXXXX@..@XXXXXXXXXXXXXXXXXXXXXXXXXXXX@..@XXXXXXXXXXXXX",
"................................................................",
"................................................................",
"..O+++++++++++++++++++++++++++++..O+++++++++++++++++++++++++++++",
"..+oooooooooooooooooooooooooooo+..+ooooooooooooooooooooooooooooo",
"..XOOOOOOOOOOOOOOOOOOOOOOOOOOOOX..XOOOOOOOOOOOOOOOOOOOOOOOOOOOOO",
"..X                            X..X                             ",
"..X                            X..X                             ",
"..X                            X..X                             ",
"..X                            X..X                             ",
"..X                            X..X                             ",
"..X                            X..X                             ",
"..X                            X..X                             ",
"..X                            X..X                             ",
"..X                            X..X                             ",
"..X                            X..X                             ",
"..@XXXXXXXXXXXXXXXXXXXXXXXXXXXX@..@XXXXXXXXXXXXXXXXXXXXXXXXXXXXX",
"................................................................",
"................................................................",
"+++++++++++++++O..O++++++++++++++++++++++++++++O..O+++++++++++++",
"ooooooooooooooo+..+oooooooooooooooooooooooooooo+..+ooooooooooooo",
"OOOOOOOOOOOOOOOX..XOOOOOOOOOOOOOOOOOOOOOOOOOOOOX..XOOOOOOOOOOOOO",
"               X..X                            X..X             ",
"               X..X                            X..X             ",
"               X..X                            X..X             ",
"               X..X                            X..X             ",
"               X..X                            X..X             ",
"               X..X                            X..X             ",
"               X..X                            X..X             ",
"               X..X                            X..X             ",
"               X..X                            X..X             ",
"               X..X                            X..X             ",
"XXXXXXXXXXXXXXX@..@XXXXXXXXXXXXXXXXXXXXXXXXXXXX@..@XXXXXXXXXXXXX",
"................................................................",
"................................................................"
};
